packages/foundations/assets/icons/functional/images/social/heart_28.svg

<svg width="28" height="28" viewBox="0 0 28 28" fill="none" xmlns="http://www.w3.org/2000/svg">
<g clip-path="url(#clip0_187_408)">
<path fill-rule="evenodd" clip-rule="evenodd" d="M19.7696 3.60938C23.3242 3.60938 26.25 6.48042 26.25 10.0625C26.25 11.7031 25.6758 13.371 24.3085 14.6835L14.6016 24.1446C14.4375 24.3085 14.1915 24.3906 13.9727 24.3906C13.754 24.3906 13.5352 24.3085 13.371 24.1446L3.63667 14.6835C2.35156 13.4531 1.75 11.7578 1.75 10.1172C1.75 6.48042 4.70312 3.60938 8.20312 3.60938C9.87105 3.60938 11.5391 4.26562 12.7969 5.52344L13.9727 6.69917L15.1484 5.52344C16.4062 4.26562 18.0742 3.60938 19.7696 3.60938ZM19.7148 5.38667C18.5117 5.38667 17.3359 5.82418 16.4062 6.75395L14.6016 8.55855C14.4375 8.7227 14.1915 8.80469 13.9727 8.80469C13.754 8.80469 13.5352 8.7227 13.371 8.55855L11.5665 6.75395C10.6641 5.85156 9.46094 5.38667 8.20312 5.38667C5.60542 5.38667 3.5 7.49219 3.5 10.1446C3.5 11.3477 3.9375 12.5508 4.86719 13.4531L13.9727 22.2852L23.0781 13.4531C24.0352 12.5234 24.4727 11.3203 24.4727 10.1172C24.4727 7.4648 22.3125 5.38667 19.7148 5.38667Z" fill="#1A1C1F"/>
</g>
<defs>
<clipPath id="clip0_187_408">
<rect width="28" height="28" fill="white"/>
</clipPath>
</defs>
</svg>

<svg xmlns="http://www.w3.org/2000/svg" width="28" height="28" fill="none"><g clip-path="url(#a)"><path fill="#1A1C1F" fill-rule="evenodd" d="M19.77 3.61c3.554 0 6.48 2.87 6.48 6.453 0 1.64-.574 3.308-1.942 4.62l-9.706 9.462a.91.91 0 0 1-.63.246.85.85 0 0 1-.601-.246l-9.734-9.461c-1.285-1.23-1.887-2.926-1.887-4.567 0-3.637 2.953-6.508 6.453-6.508 1.668 0 3.336.657 4.594 1.914L13.973 6.7l1.175-1.176A6.52 6.52 0 0 1 19.77 3.61m-.055 1.777a4.61 4.61 0 0 0-3.309 1.367l-1.804 1.805a.9.9 0 0 1-.63.246.85.85 0 0 1-.601-.246l-1.805-1.805c-.902-.902-2.105-1.367-3.363-1.367-2.598 0-4.703 2.105-4.703 4.758 0 1.203.438 2.406 1.367 3.308l9.106 8.832 9.105-8.832c.957-.93 1.395-2.133 1.395-3.336 0-2.652-2.16-4.73-4.758-4.73" clip-rule="evenodd"/></g><defs><clipPath id="a"><path fill="#fff" d="M0 0h28v28H0z"/></clipPath></defs></svg>
